public/characters/giko_basketball/front-walking-1.svg

<svg width="160" height="182" xmlns="http://www.w3.org/2000/svg" xml:space="preserve" style="fill-rule:evenodd;clip-rule:evenodd;stroke-linecap:round;stroke-linejoin:round"><path d="M10.75-56.05v-.05H4.5v3.9l-.05 1.1L4-48.65l-1.05 2H2v3.3h1.35v-1.95h7.2v1.95h1.4v-3.3h-1.2v-9.4M.4-60h3.9l1.2.55 3.85-8.6 3.9 8.6L14.5-60l3.15 3.05 1.1 1.1-1.1-1.1 1.15 1.1h-.05l-.35.4.1.1c1.4 1.367 2.167 2.883 2.3 4.55l.05.6c0 1.1-.267 2.133-.8 3.1l-.25.45-1.4 1.7.1.1-.3.3-3.25.9v4.7l-3.25.7-3.15.9.65 1.6L12.55-37l3-.6c1.033 0 1.75.2 2.15.6.533.533.8 1.2.8 2 0 .733-.25 1.35-.75 1.85-.7.7-2.067 1.117-4.1 1.25l-1.25.05.35 1.5 1.5-.05-.05 2.75-1.5 1.25v8.75H8.15v1.55h6.6l1.15.4c.367.367.55.917.55 1.65 0 .7-.183 1.233-.55 1.6-.3.3-.683.45-1.15.45h-6.6v.95H-1.6l-1.55 1.5V-3c0 .467-.15.85-.45 1.15-.367.367-.9.55-1.6.55-.733 0-1.283-.183-1.65-.55-.267-.3-.4-.683-.4-1.15v-6.55H-8.8l-1.7-1.1-1.75-3.9v-2.4h.15v-1.5l.45-.4.2-.15 1.15-1.4-1.25-1-.7.95.4-10.95 1.75-12.8.4.35.75-.7-1-1.1c-.967-1.233-1.467-2.567-1.5-4v-.25l.05-.9c.233-1.533 1.05-2.95 2.45-4.25l-.75-.75.5-3.95.65.3 3.85-8.6 3.85 8.6L.4-60m5.45 8.85v-3.6h3.5v8.15H4.4l.05-.05.5-.9.9-3.55v-.05m-13 7.55.75-1.55v-1.35h-1.5v1.45h.55l-.55 1.45h.75m3.65-2.9H-5v1.45h.55L-5-43.6h.75l.75-1.55v-1.35" style="fill:#fff" transform="matrix(2 0 0 2 79.341 142)"/><path d="M100.841 29.9v18.9h2.4v6.5h-2.8v-3.9h-14.4v3.9h-2.7v-6.5h1.9l2.1-4.1.9-4.9.1-2.2v-7.7h12.5m-20.7-7.9-2.5 1.1-7.7-17.2-7.7 17.2-1.3-.6-1.1-.5 10.1-22 10.2 22m-20.2 8.4 1.5 1.5c-2.8 2.6-4.434 5.434-4.9 8.5l-.1 1.8v.5c.066 2.866 1.066 5.534 3 8l2 2.2-1.5 1.4-.8-.7-1.2-1.4-1.5-2.1c-1.466-2.334-2.166-4.9-2.1-7.7l.1-2c.266-2 .934-3.9 2-5.7l3.5-4.3m-5.1 70.7 1.4-1.9 2.5 2-2.3 2.8-.4.3-.9.8c-.934.6-2 .9-3.2.9-1.266 0-3.034-.734-5.3-2.2-1.6-.866-2.866-1.3-3.8-1.3-1.2 0-2.066.366-2.6 1.1l-.3.4-.9 1.5-2.7-1.5a8.99 8.99 0 0 1 2.4-3.3l1.2-.9 2.7-.7c1.466 0 2.966.534 4.5 1.6 2.2 1.134 3.9 1.7 5.1 1.7.8 0 1.666-.434 2.6-1.3m6.9 21.8h3.1V136c0 .934.266 1.7.8 2.3.734.734 1.834 1.1 3.3 1.1 1.4 0 2.466-.366 3.2-1.1.6-.6.9-1.366.9-2.3v-13.1h3v13.2c0 1.666-.534 3.034-1.6 4.1-1.2 1.2-3.034 1.8-5.5 1.8-2.534 0-4.4-.6-5.6-1.8-1.066-1.066-1.6-2.434-1.6-4.1v-13.2m33.9-3V118h13.2c.934 0 1.7-.3 2.3-.9.734-.734 1.1-1.8 1.1-3.2 0-1.466-.366-2.566-1.1-3.3l-2.3-.8h-13.2v-3.1h13.3c1.666 0 3.034.534 4.1 1.6 1.2 1.2 1.8 3.066 1.8 5.6 0 2.466-.6 4.3-1.8 5.5l-.6.5c-1 .734-2.166 1.1-3.5 1.1h-13.3v-1.1m12.2-38.7-3 .1-.7-3 2.5-.1c4.066-.266 6.8-1.1 8.2-2.5 1-1 1.5-2.234 1.5-3.7 0-1.6-.534-2.934-1.6-4-.8-.8-2.234-1.2-4.3-1.2l-6 1.2-6.7 2.5-1.3-3.2 6.3-1.8 6.5-1.4 1.5-.1c2.934 0 5.1.7 6.5 2.1 1.466 1.4 2.2 3.3 2.2 5.7 0 2.466-.666 4.366-2 5.7l-.8.7c-2.134 1.6-5.066 2.6-8.8 3m8.5-28.9-.2-.2 2.8-3.4.5-.9c1.066-1.934 1.6-4 1.6-6.2l-.1-1.2c-.266-3.334-1.8-6.366-4.6-9.1l-.2-.2.7-.8h.1l.6-.7c3.4 3.134 5.234 6.734 5.5 10.8l.1 1.2c0 2.534-.6 4.9-1.8 7.1-.934 1.666-2.2 3.266-3.8 4.8l-1.2-1.2m-8-30.3-2.5 1.1-7.8-17.2-7.7 17.2-2.4-1.1 10.1-22 10.3 22m-17.3 17.7v.1l-1.8 7.1-1 1.8-.1.1h9.9V32.5h-7v7.2m-18.7 9.3v2.7l-1.5 3.1h-1.5l1.1-2.9h-1.1V49h3m-7.3 5.8h-1.5l1.1-2.9h-1.1V49h3v2.7l-1.5 3.1"/><path d="M4.3-60H.4m12.3 39.65v-6.05m6.05-29.45-1.1-1.1" style="fill:none;fill-rule:nonzero;stroke:#000;stroke-width:1px" transform="matrix(2 0 0 2 79.341 142)"/><path d="m57.264 65.446 12.391-9.819 9.154.309c12.992 13.066 17.822 12.11 24.374.498l5.074.975 1.195 8.333c-.402-.566-1.951.163-2.184-.338-2.55-5.487-4.887-5.474-7.192 2.271-1.51 6.646-.594 16.109 4.522 16.906 1.536-.695 2.388-2.414 2.697-4.949.086 1.365 1.794-.528 1.896.766.331 4.24-.916 11.336-.848 14.95l-54.066-.733c-.689-12.748-.236-16.421 2.987-29.169Zm19.174-5.408c-4.887 0-8.854 5.376-8.854 11.997 0 6.622 3.967 11.997 8.854 11.997 4.886 0 8.853-5.375 8.853-11.997 0-6.621-3.967-11.997-8.853-11.997Z" style="fill:#c7c7c7;stroke:#000;stroke-width:2px;stroke-linecap:butt;stroke-miterlimit:1.5"/><path d="m91.702 66.897 3.334.161 1.189 2.903-.456 6.108-2.619 1.362 2.175 2.339-.143 7.072-2.087 1.682-2.984-.196-1.244-2.563.196-6.133 3.716-2.201-2.61-2.283-.163-6.413 1.696-1.838Z" style="fill:none;stroke:#ffdb69;stroke-width:2.5px;stroke-linecap:butt;stroke-miterlimit:1.5" transform="translate(-.909 3.635)"/><circle cx="1505.03" cy="474.652" r="16.705" style="fill:#b05d02;stroke:#000;stroke-width:1px;stroke-miterlimit:1.5" transform="rotate(180 805.823 299.923) scale(1.00234)"/><path d="M1536.52 481.049c-1.65 4.247 8.5 13.966 19.94 10.966" style="fill:none;stroke:#944d00;stroke-width:.7px;stroke-miterlimit:1.5" transform="rotate(180 1160.63 412.106) scale(1.43518)"/><path d="M1549.1 476.555c5.86 10.098 1.61 28.004-8.86 21.659-4.16-1.215-8.17-10.38-5.9-11.999 1.35 8.703 12.47 15.682 14.48 3.246.88-5.397-13.81-9.565-6.69-12.952 2.38-.923 4.69-.74 6.97.046Z" style="fill:none;stroke:#944d00;stroke-width:.7px;stroke-miterlimit:1.5" transform="rotate(180 1160.63 412.106) scale(1.43518)"/><path d="M1552.73 496.807c.33-5.022.57-5.887 3.73-11.166" style="fill:none;stroke:#944d00;stroke-width:.7px;stroke-miterlimit:1.5" transform="rotate(180 1160.63 412.106) scale(1.43518)"/><g opacity=".3"><circle cx="1505.03" cy="474.652" r="16.705" style="fill:#b05d02;stroke:#000;stroke-width:1px;stroke-miterlimit:1.5" transform="matrix(-1.00234 0 0 1.00234 1603.717 -374.889)"/><path d="M1536.52 481.049c-1.65 4.247 8.5 13.966 19.94 10.966" style="fill:none;stroke:#944d00;stroke-width:.7px;stroke-miterlimit:1.5" transform="matrix(-1.43518 0 0 1.43518 2313.33 -599.255)"/><path d="M1549.1 476.555c5.86 10.098 1.61 28.004-8.86 21.659-4.16-1.215-8.17-10.38-5.9-11.999 1.35 8.703 12.47 15.682 14.48 3.246.88-5.397-13.81-9.565-6.69-12.952 2.38-.923 4.69-.74 6.97.046Z" style="fill:none;stroke:#944d00;stroke-width:.7px;stroke-miterlimit:1.5" transform="matrix(-1.43518 0 0 1.43518 2313.33 -599.255)"/><path d="M1552.73 496.807c.33-5.022.57-5.887 3.73-11.166" style="fill:none;stroke:#944d00;stroke-width:.7px;stroke-miterlimit:1.5" transform="matrix(-1.43518 0 0 1.43518 2313.33 -599.255)"/></g><path d="M70.252 68.803c4.524-2.168 9.048-3.314 13.572-3.526 3.84.403 5.331 1.406 6.318 3.14 1.162 2.041 1.304 5.054-.974 8.7-3.395 1.558-7.188 2.319-11.421 2.2" style="fill:#fff;stroke:#000;stroke-width:3px;stroke-linecap:butt;stroke-miterlimit:1.5" transform="rotate(44.692 79.34 74.26)"/><g id="gikopoipoi_eyes_open"><path d="M1.35 0h.2l.55.1.45.35c.3.3.45.633.45 1L2.55 2.6c-.3.267-.633.4-1 .4l-.8-.2-.25-.2-.45-.7v-.15L0 1.45v-.1c.033-.333.2-.633.5-.9l.25-.2C.917.117 1.1.033 1.3 0h.05m.45.85L1.55.8C1.317.767 1.133.833 1 1c-.133.1-.2.25-.2.45v.15l.15.45H1l.05.05.2.1.3.05.55-.2.15-.6-.05-.3L2.1 1 2.05.95 1.9.85h-.1" transform="matrix(2.0124 0 0 2 72.133 27)"/><path d="M1.35 0h.2l.55.1.45.35c.3.3.45.633.45 1L2.55 2.6c-.3.267-.633.4-1 .4l-.8-.2-.25-.2-.45-.7v-.15L0 1.45v-.1c.033-.333.2-.633.5-.9l.25-.2C.917.117 1.1.033 1.3 0h.05m.45.85L1.55.8C1.317.767 1.133.833 1 1c-.133.1-.2.25-.2.45v.15l.15.45H1l.05.05.2.1.3.05.55-.2.15-.6-.05-.3L2.1 1 2.05.95 1.9.85h-.1" transform="matrix(2.0124 0 0 2 105.974 27)"/></g><g id="gikopoipoi_eyes_closed" style="display:none"><path d="M107.46 30.1h6.3" style="fill:none;fill-rule:nonzero;stroke:#000;stroke-width:3px"/><path d="M-.05 1.55H3.1" style="fill:none;fill-rule:nonzero;stroke:#000;stroke-width:1.5px" transform="matrix(2 0 0 2 73.719 27)"/></g></svg>

<?xml version="1.0" encoding="UTF-8" standalone="no"?>
<!DOCTYPE svg PUBLIC "-//W3C//DTD SVG 1.1//EN" "http://www.w3.org/Graphics/SVG/1.1/DTD/svg11.dtd">
<svg width="160px" height="182px" version="1.1" xmlns="http://www.w3.org/2000/svg" xmlns:xlink="http://www.w3.org/1999/xlink" xml:space="preserve" xmlns:serif="http://www.serif.com/" style="fill-rule:evenodd;clip-rule:evenodd;stroke-linecap:round;stroke-linejoin:round;">
    <g id="c" transform="matrix(2,0,0,2,36.341,0)">
        <g transform="matrix(1,0,0,1,21.5,71)">
            <path d="M10.75,-56.05L10.75,-56.1L4.5,-56.1L4.5,-52.2L4.45,-51.1L4,-48.65L2.95,-46.65L2,-46.65L2,-43.35L3.35,-43.35L3.35,-45.3L10.55,-45.3L10.55,-43.35L11.95,-43.35L11.95,-46.65L10.75,-46.65L10.75,-56.05M0.4,-60L4.3,-60L5.5,-59.45L9.35,-68.05L13.25,-59.45L14.5,-60L17.65,-56.95L18.75,-55.85L17.65,-56.95L18.8,-55.85L18.75,-55.85L18.4,-55.45L18.5,-55.35C19.9,-53.983 20.667,-52.467 20.8,-50.8L20.85,-50.2C20.85,-49.1 20.583,-48.067 20.05,-47.1L19.8,-46.65L18.4,-44.95L18.5,-44.85L18.2,-44.55L14.95,-43.65L14.95,-38.95L11.7,-38.25L8.55,-37.35L9.2,-35.75L12.55,-37L15.55,-37.6C16.583,-37.6 17.3,-37.4 17.7,-37C18.233,-36.467 18.5,-35.8 18.5,-35C18.5,-34.267 18.25,-33.65 17.75,-33.15C17.05,-32.45 15.683,-32.033 13.65,-31.9L12.4,-31.85L12.75,-30.35L14.25,-30.4L14.2,-27.65L12.7,-26.4L12.7,-17.65L8.15,-17.65L8.15,-16.1L14.75,-16.1L15.9,-15.7C16.267,-15.333 16.45,-14.783 16.45,-14.05C16.45,-13.35 16.267,-12.817 15.9,-12.45C15.6,-12.15 15.217,-12 14.75,-12L8.15,-12L8.15,-11.05L-1.6,-11.05L-3.15,-9.55L-3.15,-3C-3.15,-2.533 -3.3,-2.15 -3.6,-1.85C-3.967,-1.483 -4.5,-1.3 -5.2,-1.3C-5.933,-1.3 -6.483,-1.483 -6.85,-1.85C-7.117,-2.15 -7.25,-2.533 -7.25,-3L-7.25,-9.55L-8.8,-9.55L-10.5,-10.65L-12.25,-14.55L-12.25,-16.95L-12.1,-16.95L-12.1,-18.45L-11.65,-18.85L-11.45,-19L-10.3,-20.4L-11.55,-21.4L-12.25,-20.45L-11.85,-31.4L-10.1,-44.2L-9.7,-43.85L-8.95,-44.55L-9.95,-45.65C-10.917,-46.883 -11.417,-48.217 -11.45,-49.65L-11.45,-49.9L-11.4,-50.8C-11.167,-52.333 -10.35,-53.75 -8.95,-55.05L-9.7,-55.8L-9.2,-59.75L-8.55,-59.45L-4.7,-68.05L-0.85,-59.45L0.4,-60M5.85,-51.15L5.85,-54.75L9.35,-54.75L9.35,-46.6L4.4,-46.6L4.45,-46.65L4.95,-47.55L5.85,-51.1L5.85,-51.15M-7.15,-43.6L-6.4,-45.15L-6.4,-46.5L-7.9,-46.5L-7.9,-45.05L-7.35,-45.05L-7.9,-43.6L-7.15,-43.6M-3.5,-46.5L-5,-46.5L-5,-45.05L-4.45,-45.05L-5,-43.6L-4.25,-43.6L-3.5,-45.15L-3.5,-46.5" style="fill:white;"/>
        </g>
        <g transform="matrix(1,0,0,1,21.5,71)">
            <path d="M10.75,-56.05L10.75,-46.6L11.95,-46.6L11.95,-43.35L10.55,-43.35L10.55,-45.3L3.35,-45.3L3.35,-43.35L2,-43.35L2,-46.6L2.95,-46.6L4,-48.65L4.45,-51.1L4.5,-52.2L4.5,-56.05L10.75,-56.05M0.4,-60L-0.85,-59.45L-4.7,-68.05L-8.55,-59.45L-9.2,-59.75L-9.75,-60L-4.7,-71L0.4,-60M-9.7,-55.8L-8.95,-55.05C-10.35,-53.75 -11.167,-52.333 -11.4,-50.8L-11.45,-49.9L-11.45,-49.65C-11.417,-48.217 -10.917,-46.883 -9.95,-45.65L-8.95,-44.55L-9.7,-43.85L-10.1,-44.2L-10.7,-44.9L-11.45,-45.95C-12.183,-47.117 -12.533,-48.4 -12.5,-49.8L-12.45,-50.8C-12.317,-51.8 -11.983,-52.75 -11.45,-53.65L-9.7,-55.8M-12.25,-20.45L-11.55,-21.4L-10.3,-20.4L-11.45,-19L-11.65,-18.85L-12.1,-18.45C-12.567,-18.15 -13.1,-18 -13.7,-18C-14.333,-18 -15.217,-18.367 -16.35,-19.1C-17.15,-19.533 -17.783,-19.75 -18.25,-19.75C-18.85,-19.75 -19.283,-19.567 -19.55,-19.2L-19.7,-19L-20.15,-18.25L-21.5,-19C-21.233,-19.633 -20.833,-20.183 -20.3,-20.65L-19.7,-21.1L-18.35,-21.45C-17.617,-21.45 -16.867,-21.183 -16.1,-20.65C-15,-20.083 -14.15,-19.8 -13.55,-19.8C-13.15,-19.8 -12.717,-20.017 -12.25,-20.45M-8.8,-9.55L-7.25,-9.55L-7.25,-3C-7.25,-2.533 -7.117,-2.15 -6.85,-1.85C-6.483,-1.483 -5.933,-1.3 -5.2,-1.3C-4.5,-1.3 -3.967,-1.483 -3.6,-1.85C-3.3,-2.15 -3.15,-2.533 -3.15,-3L-3.15,-9.55L-1.65,-9.55L-1.65,-2.95C-1.65,-2.117 -1.917,-1.433 -2.45,-0.9C-3.05,-0.3 -3.967,-0 -5.2,-0C-6.467,-0 -7.4,-0.3 -8,-0.9C-8.533,-1.433 -8.8,-2.117 -8.8,-2.95L-8.8,-9.55M8.15,-11.05L8.15,-12L14.75,-12C15.217,-12 15.6,-12.15 15.9,-12.45C16.267,-12.817 16.45,-13.35 16.45,-14.05C16.45,-14.783 16.267,-15.333 15.9,-15.7L14.75,-16.1L8.15,-16.1L8.15,-17.65L14.8,-17.65C15.633,-17.65 16.317,-17.383 16.85,-16.85C17.45,-16.25 17.75,-15.317 17.75,-14.05C17.75,-12.817 17.45,-11.9 16.85,-11.3L16.55,-11.05C16.05,-10.683 15.467,-10.5 14.8,-10.5L8.15,-10.5L8.15,-11.05M14.25,-30.4L12.75,-30.35L12.4,-31.85L13.65,-31.9C15.683,-32.033 17.05,-32.45 17.75,-33.15C18.25,-33.65 18.5,-34.267 18.5,-35C18.5,-35.8 18.233,-36.467 17.7,-37C17.3,-37.4 16.583,-37.6 15.55,-37.6L12.55,-37L9.2,-35.75L8.55,-37.35L11.7,-38.25L14.95,-38.95L15.7,-39C17.167,-39 18.25,-38.65 18.95,-37.95C19.683,-37.25 20.05,-36.3 20.05,-35.1C20.05,-33.867 19.717,-32.917 19.05,-32.25L18.65,-31.9C17.583,-31.1 16.117,-30.6 14.25,-30.4M18.5,-44.85L18.4,-44.95L19.8,-46.65L20.05,-47.1C20.583,-48.067 20.85,-49.1 20.85,-50.2L20.8,-50.8C20.667,-52.467 19.9,-53.983 18.5,-55.35L18.4,-55.45L18.75,-55.85L18.8,-55.85L19.1,-56.2C20.8,-54.633 21.717,-52.833 21.85,-50.8L21.9,-50.2C21.9,-48.933 21.6,-47.75 21,-46.65C20.533,-45.817 19.9,-45.017 19.1,-44.25L18.5,-44.85M14.5,-60L13.25,-59.45L9.35,-68.05L5.5,-59.45L4.3,-60L9.35,-71L14.5,-60M5.85,-51.15L5.85,-51.1L4.95,-47.55L4.45,-46.65L4.4,-46.6L9.35,-46.6L9.35,-54.75L5.85,-54.75L5.85,-51.15M-3.5,-46.5L-3.5,-45.15L-4.25,-43.6L-5,-43.6L-4.45,-45.05L-5,-45.05L-5,-46.5L-3.5,-46.5M-7.15,-43.6L-7.9,-43.6L-7.35,-45.05L-7.9,-45.05L-7.9,-46.5L-6.4,-46.5L-6.4,-45.15L-7.15,-43.6"/>
        </g>
        <g transform="matrix(1,0,0,1,21.5,71)">
            <path d="M4.3,-60L0.4,-60M12.7,-20.35L12.7,-26.4M18.75,-55.85L17.65,-56.95" style="fill:none;fill-rule:nonzero;stroke:black;stroke-width:1px;"/>
        </g>
    </g>
    <path d="M57.264,65.446L69.655,55.627L78.809,55.936C91.801,69.002 96.631,68.046 103.183,56.434L108.257,57.409L109.452,65.742C109.05,65.176 107.501,65.905 107.268,65.404C104.718,59.917 102.381,59.93 100.076,67.675C98.566,74.321 99.482,83.784 104.598,84.581C106.134,83.886 106.986,82.167 107.295,79.632C107.381,80.997 109.089,79.104 109.191,80.398C109.522,84.638 108.275,91.734 108.343,95.348L54.277,94.615C53.588,81.867 54.041,78.194 57.264,65.446ZM76.438,60.038C71.551,60.038 67.584,65.414 67.584,72.035C67.584,78.657 71.551,84.032 76.438,84.032C81.324,84.032 85.291,78.657 85.291,72.035C85.291,65.414 81.324,60.038 76.438,60.038Z" style="fill:rgb(199,199,199);stroke:black;stroke-width:2px;stroke-linecap:butt;stroke-miterlimit:1.5;"/>
    <g transform="matrix(1,0,0,1,-0.908795,3.63518)">
        <path d="M91.702,66.897L95.036,67.058L96.225,69.961L95.769,76.069L93.15,77.431L95.325,79.77L95.182,86.842L93.095,88.524L90.111,88.328L88.867,85.765L89.063,79.632L92.779,77.431L90.169,75.148L90.006,68.735L91.702,66.897Z" style="fill:none;stroke:rgb(255,219,105);stroke-width:2.5px;stroke-linecap:butt;stroke-miterlimit:1.5;"/>
    </g>
    <g transform="matrix(-1.43518,0,0,-1.43518,2321.26,824.211)">
        <g transform="matrix(0.698409,0,0,0.698409,494.442,156.333)">
            <circle cx="1505.03" cy="474.652" r="16.705" style="fill:rgb(176,93,2);stroke:black;stroke-width:1px;stroke-miterlimit:1.5;"/>
        </g>
        <path d="M1536.52,481.049C1534.87,485.296 1545.02,495.015 1556.46,492.015" style="fill:none;stroke:rgb(148,77,0);stroke-width:0.7px;stroke-miterlimit:1.5;"/>
        <path d="M1549.1,476.555C1554.96,486.653 1550.71,504.559 1540.24,498.214C1536.08,496.999 1532.07,487.834 1534.34,486.215C1535.69,494.918 1546.81,501.897 1548.82,489.461C1549.7,484.064 1535.01,479.896 1542.13,476.509C1544.51,475.586 1546.82,475.769 1549.1,476.555Z" style="fill:none;stroke:rgb(148,77,0);stroke-width:0.7px;stroke-miterlimit:1.5;"/>
        <path d="M1552.73,496.807C1553.06,491.785 1553.3,490.92 1556.46,485.641" style="fill:none;stroke:rgb(148,77,0);stroke-width:0.7px;stroke-miterlimit:1.5;"/>
    </g>
    <g transform="matrix(-1.43518,0,0,1.43518,2313.33,-599.255)">
        <g opacity="0.3">
            <g transform="matrix(0.698409,0,0,0.698409,494.442,156.333)">
                <circle cx="1505.03" cy="474.652" r="16.705" style="fill:rgb(176,93,2);stroke:black;stroke-width:1px;stroke-miterlimit:1.5;"/>
            </g>
            <path d="M1536.52,481.049C1534.87,485.296 1545.02,495.015 1556.46,492.015" style="fill:none;stroke:rgb(148,77,0);stroke-width:0.7px;stroke-miterlimit:1.5;"/>
            <path d="M1549.1,476.555C1554.96,486.653 1550.71,504.559 1540.24,498.214C1536.08,496.999 1532.07,487.834 1534.34,486.215C1535.69,494.918 1546.81,501.897 1548.82,489.461C1549.7,484.064 1535.01,479.896 1542.13,476.509C1544.51,475.586 1546.82,475.769 1549.1,476.555Z" style="fill:none;stroke:rgb(148,77,0);stroke-width:0.7px;stroke-miterlimit:1.5;"/>
            <path d="M1552.73,496.807C1553.06,491.785 1553.3,490.92 1556.46,485.641" style="fill:none;stroke:rgb(148,77,0);stroke-width:0.7px;stroke-miterlimit:1.5;"/>
        </g>
    </g>
    <g transform="matrix(0.710893,0.7033,-0.7033,0.710893,75.1645,-34.3306)">
        <path d="M70.252,68.803C74.776,66.635 79.3,65.489 83.824,65.277C87.664,65.68 89.155,66.683 90.142,68.417C91.304,70.458 91.446,73.471 89.168,77.117C85.773,78.675 81.98,79.436 77.747,79.317" style="fill:white;stroke:black;stroke-width:3px;stroke-linecap:butt;stroke-miterlimit:1.5;"/>
    </g>
    <g id="gikopoipoi_eyes_open" transform="matrix(2.0024,0,0,2,73.7429,27)">
        <g id="b" transform="matrix(1.005,0,0,1,-0.804,0)">
            <path d="M1.35,0L1.55,0L2.1,0.1L2.55,0.45C2.85,0.75 3,1.083 3,1.45L2.55,2.6C2.25,2.867 1.917,3 1.55,3L0.75,2.8L0.5,2.6L0.05,1.9L0.05,1.75L0,1.45L0,1.35C0.033,1.017 0.2,0.717 0.5,0.45L0.75,0.25C0.917,0.117 1.1,0.033 1.3,0L1.35,0M1.8,0.85L1.55,0.8C1.317,0.767 1.133,0.833 1,1C0.867,1.1 0.8,1.25 0.8,1.45L0.8,1.6L0.95,2.05L1,2.05L1.05,2.1L1.25,2.2L1.55,2.25L2.1,2.05L2.25,1.45L2.2,1.15L2.1,1L2.05,0.95L1.9,0.85L1.8,0.85"/>
        </g>
        <g id="b1" serif:id="b" transform="matrix(1.005,0,0,1,16.096,0)">
            <path d="M1.35,0L1.55,0L2.1,0.1L2.55,0.45C2.85,0.75 3,1.083 3,1.45L2.55,2.6C2.25,2.867 1.917,3 1.55,3L0.75,2.8L0.5,2.6L0.05,1.9L0.05,1.75L0,1.45L0,1.35C0.033,1.017 0.2,0.717 0.5,0.45L0.75,0.25C0.917,0.117 1.1,0.033 1.3,0L1.35,0M1.8,0.85L1.55,0.8C1.317,0.767 1.133,0.833 1,1C0.867,1.1 0.8,1.25 0.8,1.45L0.8,1.6L0.95,2.05L1,2.05L1.05,2.1L1.25,2.2L1.55,2.25L2.1,2.05L2.25,1.45L2.2,1.15L2.1,1L2.05,0.95L1.9,0.85L1.8,0.85"/>
        </g>
    </g>
    <g id="gikopoipoi_eyes_closed" style="display:none">
        <path d="M107.46,30.1L113.76,30.1" style="fill:none;fill-rule:nonzero;stroke:black;stroke-width:3px;"/>
        <g transform="matrix(2,0,0,2,73.719,27)">
            <path d="M-0.05,1.55L3.1,1.55" style="fill:none;fill-rule:nonzero;stroke:black;stroke-width:1.5px;"/>
        </g>
    </g>
</svg>
